assets/svg/list_icon.svg

<svg fill="none" height="30" viewBox="0 0 24 30" width="24" xmlns="http://www.w3.org/2000/svg"><path d="m23.1468 8.17401.0011 18.10479c0 .8591-.3507 1.64-.9161 2.2054s-1.3462.9162-2.2054.9162h-16.05229c-.85906 0-1.64-.3515-2.20501-.9166-.56501-.565-.916561-1.3459-.916561-2.205v-22.55762c0-.85906.351471-1.64.916561-2.20501.56501-.565014 1.34595-.916561 2.20501-.916561h11.60509c.2441 0 .4626.109272.6093.281974l6.7245 6.729867c.1546.15573.2317.35907.2335.5624zm-17.60189 16.20529c-.44186 0-.8001-.3583-.8001-.8001s.35834-.8001.8001-.8001h12.90989c.4418 0 .8001.3584.8001.8001 0 .4419-.3584.8001-.8001.8001zm0-4.8653c-.44186 0-.8001-.3583-.8001-.8001 0-.4419.35834-.8001.8001-.8001h12.90989c.4418 0 .8001.3583.8001.8001 0 .4419-.3584.8001-.8001.8001zm0-4.8653c-.44186 0-.8001-.3584-.8001-.8001 0-.4419.35834-.8001.8001-.8001h12.90989c.4418 0 .8001.3583.8001.8001s-.3584.8001-.8001.8001zm16.00269-5.67442h-3.6896c-.8437 0-1.6131-.34656-2.1718-.90406l-.003-.00302c-.5582-.5601-.9041-1.32885-.9041-2.17176v-3.6952h-10.80502c-.41803 0-.79864.17156-1.07416.4471-.27552.27552-.44709.65613-.44709 1.07416v22.5576c0 .418.17156.7986.44709 1.0742.27552.2755.65613.4471 1.07416.4471h16.05222c.4181 0 .799-.1713 1.0745-.4468s.4468-.6565.4468-1.0745zm-5.168-5.64507v2.56635c0 .40824.1659.77824.4317 1.04394l.003.00302c.2657.26573.6357.43168 1.0439.43168h2.5629l-4.0413-4.0448z" fill="#7200a6"/></svg>

<svg width="24" height="30" viewBox="0 0 24 30" fill="none" xmlns="http://www.w3.org/2000/svg">
<path d="M23.1468 8.17401L23.1479 26.2788C23.1479 27.1379 22.7972 27.9188 22.2318 28.4842C21.6664 29.0496 20.8856 29.4004 20.0264 29.4004H3.97411C3.11505 29.4004 2.33411 29.0489 1.7691 28.4838C1.20409 27.9188 0.852539 27.1379 0.852539 26.2788V3.72118C0.852539 2.86212 1.20401 2.08118 1.7691 1.51617C2.33411 0.951156 3.11505 0.599609 3.97411 0.599609H15.5792C15.8233 0.599609 16.0418 0.708881 16.1885 0.881583L22.913 7.61145C23.0676 7.76718 23.1447 7.97052 23.1465 8.17385L23.1468 8.17401ZM5.54491 24.3793C5.10305 24.3793 4.74481 24.021 4.74481 23.5792C4.74481 23.1374 5.10315 22.7791 5.54491 22.7791H18.4548C18.8966 22.7791 19.2549 23.1375 19.2549 23.5792C19.2549 24.0211 18.8965 24.3793 18.4548 24.3793H5.54491ZM5.54491 19.514C5.10305 19.514 4.74481 19.1557 4.74481 18.7139C4.74481 18.272 5.10315 17.9138 5.54491 17.9138H18.4548C18.8966 17.9138 19.2549 18.2721 19.2549 18.7139C19.2549 19.1558 18.8965 19.514 18.4548 19.514H5.54491ZM5.54491 14.6487C5.10305 14.6487 4.74481 14.2903 4.74481 13.8486C4.74481 13.4067 5.10315 13.0485 5.54491 13.0485H18.4548C18.8966 13.0485 19.2549 13.4068 19.2549 13.8486C19.2549 14.2904 18.8965 14.6487 18.4548 14.6487H5.54491ZM21.5476 8.97428H17.858C17.0143 8.97428 16.2449 8.62772 15.6862 8.07022L15.6832 8.0672C15.125 7.5071 14.7791 6.73835 14.7791 5.89544V2.20024H3.97408C3.55605 2.20024 3.17544 2.3718 2.89992 2.64734C2.6244 2.92286 2.45283 3.30347 2.45283 3.7215V26.2791C2.45283 26.6971 2.62439 27.0777 2.89992 27.3533C3.17544 27.6288 3.55605 27.8004 3.97408 27.8004H20.0263C20.4444 27.8004 20.8253 27.6291 21.1008 27.3536C21.3763 27.0781 21.5476 26.6971 21.5476 26.2791L21.5476 8.97428ZM16.3796 3.32921V5.89556C16.3796 6.3038 16.5455 6.6738 16.8113 6.9395L16.8143 6.94252C17.08 7.20825 17.45 7.3742 17.8582 7.3742H20.4211L16.3798 3.3294L16.3796 3.32921Z" fill="#7200A6"/>
</svg>
